deepin/status/network-wired-symbolic.svg

<?xml version="1.0" encoding="UTF-8" standalone="no"?>
<svg width="16px" height="16px" viewBox="0 0 16 16" version="1.1" xmlns="http://www.w3.org/2000/svg" xmlns:xlink="http://www.w3.org/1999/xlink">
    <!-- Generator: Sketch 39.1 (31720) - http://www.bohemiancoding.com/sketch -->
    <title>network-wired-symbolic</title>
    <desc>Created with Sketch.</desc>
    <defs></defs>
    <g id="Page-1" stroke="none" stroke-width="1" fill="none" fill-rule="evenodd">
        <g id="network-wired-symbolic">
            <polygon id="Fill-106" points="0 16 16 16 16 0 0 0"></polygon>
            <path d="M6.3577,7.5115 C6.1667,7.5385 5.9857,7.6315 5.8547,7.7715 L4.6647,8.9595 C4.5037,9.1145 4.4077,9.3325 4.4037,9.5535 L4.4037,10.7415 L4.4037,10.7605 L2.1747,12.9605 C1.9417,13.1935 1.9417,13.5815 2.1747,13.8145 C2.4097,14.0465 2.7977,14.0465 3.0317,13.8145 L5.2587,11.5955 L6.4507,11.5955 C6.6717,11.5905 6.8907,11.4955 7.0457,11.3355 L8.2357,10.1475 C8.5427,9.8325 8.5427,9.2735 8.2357,8.9595 L7.0457,7.7715 C6.8697,7.5895 6.6097,7.4905 6.3577,7.5115" id="Fill-124" fill="#FFFFFF"></path>
            <path d="M9.6438,8.4652 C9.8338,8.4392 10.0138,8.3452 10.1468,8.2052 L11.3358,7.0182 C11.4978,6.8622 11.5928,6.6452 11.5968,6.4232 L11.5968,5.2352 L11.5968,5.2172 L13.8248,3.0162 C14.0588,2.7842 14.0588,2.3952 13.8248,2.1622 C13.5918,1.9302 13.2028,1.9302 12.9688,2.1622 L10.7408,4.3812 L9.5508,4.3812 C9.3288,4.3862 9.1098,4.4822 8.9548,4.6422 L7.7638,5.8292 C7.4578,6.1442 7.4578,6.7032 7.7638,7.0182 L8.9548,8.2052 C9.1308,8.3882 9.3908,8.4862 9.6438,8.4652" id="Fill-126" fill="#FFFFFF"></path>
        </g>
    </g>
</svg>

<?xml version="1.0" encoding="iso-8859-1"?>
<!-- Generator: Adobe Illustrator 18.0.0, SVG Export Plug-In . SVG Version: 6.00 Build 0)  -->
<!DOCTYPE svg PUBLIC "-//W3C//DTD SVG 1.1//EN" "http://www.w3.org/Graphics/SVG/1.1/DTD/svg11.dtd">
<svg version="1.1" id="&#x56FE;&#x5C42;_1" xmlns="http://www.w3.org/2000/svg" xmlns:xlink="http://www.w3.org/1999/xlink" x="0px"
	 y="0px" viewBox="0 0 16 16" style="enable-background:new 0 0 16 16;" xml:space="preserve">
<g>
	<path style="fill:#FFFFFF;" d="M6.358,7.511c-0.191,0.027-0.372,0.12-0.503,0.26L4.664,8.959c-0.16,0.155-0.256,0.373-0.261,0.595
		v1.188c0,0.005,0,0.012,0,0.019l-2.229,2.2c-0.233,0.233-0.233,0.621,0,0.854c0.234,0.231,0.623,0.231,0.856,0l2.228-2.219H6.45
		c0.222-0.006,0.44-0.101,0.596-0.26l1.19-1.188c0.306-0.316,0.306-0.874,0-1.189l-1.19-1.188C6.87,7.589,6.61,7.49,6.358,7.511z"/>
	<path style="fill:#FFFFFF;" d="M9.644,8.465c0.19-0.026,0.37-0.12,0.502-0.26l1.19-1.188c0.161-0.155,0.256-0.373,0.261-0.595
		V5.235c0-0.006,0-0.012,0-0.018l2.228-2.201c0.233-0.232,0.233-0.621,0-0.853c-0.233-0.232-0.623-0.232-0.856,0L10.74,4.381H9.55
		C9.328,4.386,9.11,4.482,8.955,4.642L7.764,5.829c-0.306,0.315-0.306,0.874,0,1.189l1.191,1.188
		C9.131,8.388,9.39,8.487,9.644,8.465z"/>
</g>
</svg>
